resources/icons/16px/layout-hierarchy.svg

<svg xmlns="http://www.w3.org/2000/svg" viewBox="0 0 16 16">
  <path d="M14.5 12.07V9.93c.86-.22 1.5-1 1.5-1.93 0-1.1-.9-2-2-2-.93 0-1.71.64-1.93 1.5H9.93c-.18-.7-.73-1.25-1.43-1.43V3.93c.86-.22 1.5-1 1.5-1.93 0-1.1-.9-2-2-2S6 .9 6 2c0 .93.64 1.71 1.5 1.93v2.14c-.7.18-1.25.73-1.43 1.43H3.93C3.71 6.64 2.93 6 2 6 .9 6 0 6.9 0 8c0 .93.64 1.71 1.5 1.93v2.14c-.86.22-1.5 1-1.5 1.93 0 1.1.9 2 2 2s2-.9 2-2c0-.93-.64-1.71-1.5-1.93V9.93c.7-.18 1.25-.73 1.43-1.43h2.14c.18.7.73 1.25 1.43 1.43v2.14c-.86.22-1.5 1-1.5 1.93 0 1.1.9 2 2 2s2-.9 2-2c0-.93-.64-1.71-1.5-1.93V9.93c.7-.18 1.25-.73 1.43-1.43h2.14c.18.7.73 1.25 1.43 1.43v2.14c-.86.22-1.5 1-1.5 1.93 0 1.1.9 2 2 2s2-.9 2-2c0-.93-.64-1.71-1.5-1.93"/>
</svg>

<?xml version="1.0" encoding="utf-8"?>
<!-- Generator: Adobe Illustrator 17.1.0, SVG Export Plug-In . SVG Version: 6.00 Build 0)  -->
<!DOCTYPE svg PUBLIC "-//W3C//DTD SVG 1.1//EN" "http://www.w3.org/Graphics/SVG/1.1/DTD/svg11.dtd">
<svg version="1.1" id="Layer_1" xmlns="http://www.w3.org/2000/svg" xmlns:xlink="http://www.w3.org/1999/xlink" x="0px" y="0px"
	 viewBox="0 0 16 16" enable-background="new 0 0 16 16" xml:space="preserve">
<g id="layout_hierarchy_3_">
	<g>
		<path fill-rule="evenodd" clip-rule="evenodd" d="M14.5,12.07V9.93C15.36,9.71,16,8.93,16,8c0-1.1-0.9-2-2-2
			c-0.93,0-1.71,0.64-1.93,1.5H9.93C9.75,6.8,9.2,6.25,8.5,6.07V3.93C9.36,3.71,10,2.93,10,2c0-1.1-0.9-2-2-2S6,0.9,6,2
			c0,0.93,0.64,1.71,1.5,1.93v2.14C6.8,6.25,6.25,6.8,6.07,7.5H3.93C3.71,6.64,2.93,6,2,6C0.9,6,0,6.9,0,8
			c0,0.93,0.64,1.71,1.5,1.93v2.14C0.64,12.29,0,13.07,0,14c0,1.1,0.9,2,2,2s2-0.9,2-2c0-0.93-0.64-1.71-1.5-1.93V9.93
			C3.2,9.75,3.75,9.2,3.93,8.5h2.14C6.25,9.2,6.8,9.75,7.5,9.93v2.14C6.64,12.29,6,13.07,6,14c0,1.1,0.9,2,2,2s2-0.9,2-2
			c0-0.93-0.64-1.71-1.5-1.93V9.93C9.2,9.75,9.75,9.2,9.93,8.5h2.14c0.18,0.7,0.73,1.25,1.43,1.43v2.14c-0.86,0.22-1.5,1-1.5,1.93
			c0,1.1,0.9,2,2,2s2-0.9,2-2C16,13.07,15.36,12.29,14.5,12.07z"/>
	</g>
</g>
</svg>
